communes/412.svg

<?xml version="1.0" encoding="UTF-8" standalone="no"?>
<svg
   xmlns:i="http://ns.adobe.com/AdobeIllustrator/10.0/"
   xmlns:dc="http://purl.org/dc/elements/1.1/"
   xmlns:cc="http://web.resource.org/cc/"
   xmlns:rdf="http://www.w3.org/1999/02/22-rdf-syntax-ns#"
   xmlns:svg="http://www.w3.org/2000/svg"
   xmlns="http://www.w3.org/2000/svg"
   xmlns:xlink="http://www.w3.org/1999/xlink"
   xmlns:sodipodi="http://sodipodi.sourceforge.net/DTD/sodipodi-0.dtd"
   xmlns:inkscape="http://www.inkscape.org/namespaces/inkscape"
   height="763"
   width="603"
   version="1.0"
   id="svg20"
   sodipodi:version="0.32"
   inkscape:version="0.44.1"
   sodipodi:docname="Kirchberg-coat of arms.svg"
   sodipodi:docbase="F:\Mis Documentos\Mis imágenes\Encyclopédie\Escudos de Suiza">
  <metadata
     id="metadata31">
    <rdf:RDF>
      <cc:Work
         rdf:about="">
        <dc:format>image/svg+xml</dc:format>
        <dc:type
           rdf:resource="http://purl.org/dc/dcmitype/StillImage" />
        <dc:date>07-AUG-2006</dc:date>
        <dc:creator>
          <cc:Agent>
            <dc:title>Jérôme BLUM (wagner51)</dc:title>
          </cc:Agent>
        </dc:creator>
        <cc:license
           rdf:resource="http://creativecommons.org/licenses/GPL/2.0/" />
        <dc:coverage />
        <dc:description>Gabarit pour le Projet:Blasons de WIkipédia</dc:description>
        <dc:subject>
          <rdf:Bag>
            <rdf:li>blason suisse modèle gabarit projet blasons</rdf:li>
          </rdf:Bag>
        </dc:subject>
        <dc:language>fr</dc:language>
        <dc:title>Gabrit d'un blason suisse</dc:title>
      </cc:Work>
      <cc:License
         rdf:about="http://creativecommons.org/licenses/GPL/2.0/">
        <cc:permits
           rdf:resource="http://web.resource.org/cc/Reproduction" />
        <cc:permits
           rdf:resource="http://web.resource.org/cc/Distribution" />
        <cc:requires
           rdf:resource="http://web.resource.org/cc/Notice" />
        <cc:permits
           rdf:resource="http://web.resource.org/cc/DerivativeWorks" />
        <cc:requires
           rdf:resource="http://web.resource.org/cc/ShareAlike" />
        <cc:requires
           rdf:resource="http://web.resource.org/cc/SourceCode" />
      </cc:License>
    </rdf:RDF>
  </metadata>
  <defs
     id="defs29">
    <linearGradient
       id="linearGradient2893">
      <stop
         style="stop-color:#ffffff;stop-opacity:0.3137255;"
         offset="0"
         id="stop2895" />
      <stop
         id="stop2897"
         offset="0.19"
         style="stop-color:#ffffff;stop-opacity:0.25098041;" />
      <stop
         style="stop-color:#6b6b6b;stop-opacity:0.1254902;"
         offset="0.60000002"
         id="stop2901" />
      <stop
         style="stop-color:#000000;stop-opacity:0.1254902;"
         offset="1"
         id="stop2899" />
    </linearGradient>
    <linearGradient
       id="linearGradient2955">
      <stop
         style="stop-color:white;stop-opacity:0;"
         offset="0"
         id="stop2965" />
      <stop
         style="stop-color:black;stop-opacity:0.64583331;"
         offset="1"
         id="stop2959" />
    </linearGradient>
    <radialGradient
       inkscape:collect="always"
       xlink:href="#linearGradient2893"
       id="radialGradient3236"
       gradientUnits="userSpaceOnUse"
       gradientTransform="matrix(1.215027,1.531577e-24,1.464684e-23,1.266667,-839.1924,-490.4894)"
       cx="858.04236"
       cy="579.93323"
       fx="858.04236"
       fy="579.93323"
       r="300" />
  </defs>
  <sodipodi:namedview
     inkscape:window-height="682"
     inkscape:window-width="1024"
     inkscape:pageshadow="2"
     inkscape:pageopacity="0.0"
     guidetolerance="10.0"
     gridtolerance="10.0"
     objecttolerance="10.0"
     borderopacity="1.0"
     bordercolor="#666666"
     pagecolor="#ffffff"
     id="base"
     inkscape:zoom="0.48301887"
     inkscape:cx="581.10887"
     inkscape:cy="377.99413"
     inkscape:window-x="-4"
     inkscape:window-y="-4"
     inkscape:current-layer="layer2"
     showgrid="true"
     showguides="true"
     inkscape:guide-bbox="true" />
  <desc
     id="desc22">Coat of Arms of Canton of Freiburg (Fribourg)</desc>
  <g
     inkscape:groupmode="layer"
     id="layer1"
     inkscape:label="Fond écu"
     sodipodi:insensitive="true">
    <path
       id="path1899"
       d="M 1.5,1.49998 L 1.5,460.3679 C 1.5,626.6785 135.81456,761.5 301.49999,761.5 C 467.18543,761.5 601.5,626.6785 601.5,460.3679 L 601.5,1.49998 L 1.5,1.49998 z "
       style="fill:#2b5df2;fill-opacity:1" />
  </g>
  <g
     inkscape:groupmode="layer"
     id="layer2"
     inkscape:label="Meubles"
     sodipodi:insensitive="true">
    <g
       id="g40363"
       transform="matrix(3.796654,0,0,3.796654,-2421.704,-1336.072)">
      <rect
         y="390.06332"
         x="704.97473"
         height="5.9366784"
         width="7.0252438"
         id="rect34160"
         style="opacity:1;fill:black;fill-opacity:1;fill-rule:evenodd;stroke:black;stroke-width:1;stroke-linecap:round;stroke-linejoin:round;stroke-miterlimit:4;stroke-dasharray:none;stroke-opacity:1" />
      <rect
         y="452.99857"
         x="653.49854"
         height="32.502853"
         width="127.00287"
         id="rect26118"
         style="opacity:1;fill:white;fill-opacity:1;fill-rule:evenodd;stroke:black;stroke-width:0.99713373;stroke-linecap:round;stroke-linejoin:round;stroke-miterlimit:4;stroke-dasharray:none;stroke-opacity:1" />
      <path
         id="path27005"
         d="M 667,453 L 667,486"
         style="fill:white;fill-opacity:1;fill-rule:evenodd;stroke:black;stroke-width:1px;stroke-linecap:butt;stroke-linejoin:miter;stroke-opacity:1" />
      <path
         id="path27892"
         d="M 661,461 L 661,477"
         style="fill:white;fill-opacity:1;fill-rule:evenodd;stroke:black;stroke-width:1px;stroke-linecap:butt;stroke-linejoin:miter;stroke-opacity:1" />
      <path
         style="fill:white;fill-opacity:1;fill-rule:evenodd;stroke:black;stroke-width:1px;stroke-linecap:butt;stroke-linejoin:miter;stroke-opacity:1"
         d="M 673,461 L 673,477"
         id="path28782" />
      <path
         sodipodi:nodetypes="ccccccc"
         id="path28809"
         d="M 667.14261,453.92736 L 671.57881,421.17188 L 657.85444,444.4118 L 648.88786,453.92736 L 784.85055,453.92736 L 776.43294,421.17188 L 671.57881,421.17188"
         style="fill:#e20909;fill-opacity:1;fill-rule:evenodd;stroke:black;stroke-width:1px;stroke-linecap:butt;stroke-linejoin:miter;stroke-opacity:1" />
      <rect
         y="401.51608"
         x="678.51605"
         height="83.787148"
         width="32.878979"
         id="rect28784"
         style="opacity:1;fill:white;fill-opacity:1;fill-rule:evenodd;stroke:black;stroke-width:1.03217924;stroke-linecap:round;stroke-linejoin:round;stroke-miterlimit:4;stroke-dasharray:none;stroke-opacity:1" />
      <g
         style="fill:white;fill-opacity:0;stroke:black;stroke-opacity:1"
         id="g29702">
        <path
           style="fill:white;fill-opacity:0;fill-rule:evenodd;stroke:black;stroke-width:1px;stroke-linecap:butt;stroke-linejoin:miter;stroke-opacity:1"
           d="M 671.57881,408.91145 L 671.57881,421.17188"
           id="path29696"
           sodipodi:nodetypes="cc" />
        <path
           style="fill:white;fill-opacity:0;fill-rule:evenodd;stroke:black;stroke-width:1px;stroke-linecap:butt;stroke-linejoin:miter;stroke-opacity:1"
           d="M 668.90205,413.54898 L 674.26803,412.81701"
           id="path29698"
           sodipodi:nodetypes="cc" />
      </g>
      <path
         sodipodi:nodetypes="cc"
         id="path29706"
         d="M 695,440.8041 L 695,448"
         style="fill:white;fill-opacity:1;fill-rule:evenodd;stroke:black;stroke-width:1px;stroke-linecap:butt;stroke-linejoin:miter;stroke-opacity:1" />
      <path
         sodipodi:nodetypes="cccccc"
         id="path29708"
         d="M 755.58228,478.51758 L 763.57666,478.51758 L 763.57666,465.78198 C 763.26881,461.75363 761.43899,459.81798 759.80591,457.61182 C 757.3678,460.07593 755.55351,462.67372 755.51758,465.65259 L 755.58228,478.51758 z "
         style="fill:white;fill-opacity:1;fill-rule:evenodd;stroke:black;stroke-width:1px;stroke-linecap:butt;stroke-linejoin:miter;stroke-opacity:1" />
      <path
         style="fill:white;fill-opacity:1;fill-rule:evenodd;stroke:black;stroke-width:1px;stroke-linecap:butt;stroke-linejoin:miter;stroke-opacity:1"
         d="M 719.58228,478.51758 L 727.57666,478.51758 L 727.57666,465.78198 C 727.26881,461.75363 725.43899,459.81798 723.80591,457.61182 C 721.3678,460.07593 719.55351,462.67372 719.51758,465.65259 L 719.58228,478.51758 z "
         id="path30595"
         sodipodi:nodetypes="cccccc" />
      <path
         sodipodi:nodetypes="cccccc"
         id="path30597"
         d="M 691.5647,423.5 L 699.55908,423.5 L 699.55908,412.64062 C 699.51002,409.25924 697.48611,408.15343 695.85303,405.94727 C 693.41492,408.41138 691.53593,409.53236 691.5,412.51123 L 691.5647,423.5 z "
         style="fill:white;fill-opacity:1;fill-rule:evenodd;stroke:black;stroke-width:1px;stroke-linecap:butt;stroke-linejoin:miter;stroke-opacity:1" />
      <path
         style="fill:white;fill-opacity:1;fill-rule:evenodd;stroke:black;stroke-width:1px;stroke-linecap:butt;stroke-linejoin:miter;stroke-opacity:1"
         d="M 691.5647,485.5 L 698.55263,485.5 L 698.55263,474.64062 C 697.6801,472.81467 697.21162,472.25783 694.84658,470.14317 C 692.40847,472.60728 692.1764,472.99629 691.5,474.51123 L 691.5647,485.5 z "
         id="path30599"
         sodipodi:nodetypes="cccccc" />
      <path
         sodipodi:nodetypes="cccccs"
         id="rect30601"
         d="M 739.10825,471.69329 C 737.03552,471.5428 734.97179,473.93266 735.09375,476 L 735,485.5 L 743.125,485.5 L 743.125,476 C 743.19966,473.83154 741.24502,471.84844 739.10825,471.69329 z "
         style="opacity:1;fill:white;fill-opacity:1;fill-rule:evenodd;stroke:black;stroke-width:1;stroke-linecap:round;stroke-linejoin:round;stroke-miterlimit:4;stroke-dasharray:none;stroke-opacity:1" />
      <rect
         style="opacity:1;fill:black;fill-opacity:1;fill-rule:evenodd;stroke:black;stroke-width:1;stroke-linecap:round;stroke-linejoin:round;stroke-miterlimit:4;stroke-dasharray:none;stroke-opacity:1"
         id="rect34162"
         width="7.0252438"
         height="5.9366784"
         x="678.97473"
         y="390.06332" />
      <path
         style="fill:#e20909;fill-opacity:1;fill-rule:evenodd;stroke:black;stroke-width:1px;stroke-linecap:butt;stroke-linejoin:miter;stroke-opacity:1"
         d="M 704.95102,386.77448 L 709.04252,375.5 L 712.50645,385.12756 L 716.40205,391.5915 L 704.95748,391.68299 L 704.95102,386.77448 z "
         id="path34158"
         sodipodi:nodetypes="cccccc" />
      <path
         sodipodi:nodetypes="cccccc"
         id="path33271"
         d="M 686.45748,387.18944 L 682.36598,375.91496 L 678.90205,385.54252 L 673.9085,391.91496 L 686.9085,391.91496 L 686.45748,387.18944 z "
         style="fill:#e20909;fill-opacity:1;fill-rule:evenodd;stroke:black;stroke-width:1px;stroke-linecap:butt;stroke-linejoin:miter;stroke-opacity:1" />
      <path
         sodipodi:nodetypes="ccccccc"
         id="path30606"
         d="M 684.5712,389.88033 L 673.22573,402.68974 L 717.50967,402.68974 L 707.44515,389.78883 L 701.43167,378.0915 L 690.09149,378.18299 L 684.5712,389.88033 z "
         style="fill:#e20909;fill-opacity:1;fill-rule:evenodd;stroke:black;stroke-width:1px;stroke-linecap:butt;stroke-linejoin:miter;stroke-opacity:1" />
      <rect
         y="372.99017"
         x="690.49017"
         height="5.2800026"
         width="10.834559"
         id="rect31493"
         style="opacity:1;fill:black;fill-opacity:1;fill-rule:evenodd;stroke:black;stroke-width:0.980367;stroke-linecap:round;stroke-linejoin:round;stroke-miterlimit:4;stroke-dasharray:none;stroke-opacity:1" />
      <path
         sodipodi:nodetypes="cccccc"
         id="path31495"
         d="M 685,374.51758 L 707,374.51758 L 699,368 L 695.63402,354.63402 L 692,368 L 685,374.51758 z "
         style="fill:#e20909;fill-opacity:1;fill-rule:evenodd;stroke:black;stroke-width:1px;stroke-linecap:butt;stroke-linejoin:miter;stroke-opacity:1" />
      <rect
         y="390.95828"
         x="692.45831"
         height="5.5514574"
         width="6.7939568"
         id="rect33269"
         style="opacity:1;fill:black;fill-opacity:1;fill-rule:evenodd;stroke:black;stroke-width:0.91656703;stroke-linecap:round;stroke-linejoin:round;stroke-miterlimit:4;stroke-dasharray:none;stroke-opacity:1" />
      <path
         sodipodi:nodetypes="cccccc"
         id="path32382"
         d="M 689,392 L 703.17654,392.0915 L 698.62757,385.99355 L 696.00645,374.11634 L 693.27449,386 L 689,392 z "
         style="fill:#e20909;fill-opacity:1;fill-rule:evenodd;stroke:black;stroke-width:1px;stroke-linecap:butt;stroke-linejoin:miter;stroke-opacity:1" />
      <path
         sodipodi:nodetypes="cc"
         id="path35934"
         d="M 678.57666,453 L 711.29395,453"
         style="fill:white;fill-opacity:1;fill-rule:evenodd;stroke:black;stroke-width:1px;stroke-linecap:butt;stroke-linejoin:miter;stroke-opacity:1" />
      <path
         sodipodi:nodetypes="cc"
         id="path35936"
         d="M 678.70605,428 L 711.29395,428"
         style="fill:white;fill-opacity:1;fill-rule:evenodd;stroke:black;stroke-width:1px;stroke-linecap:butt;stroke-linejoin:miter;stroke-opacity:1" />
    </g>
    <g
       id="g20738"
       transform="translate(-8.8e-2,0.284899)">
      <path
         id="path4760"
         d="M 295.4375,512.75 C 242.42299,513.7794 214.87169,547.83539 198.71875,570.21875 C 198.71874,570.21875 121.45623,508.57707 58.3125,575.21875 C 49.204271,584.83152 42.701396,594.85014 38.375,605.0625 C 86.790602,693.58496 178.21963,755.02133 284.4375,761 C 284.47903,761.00234 284.52097,760.99768 284.5625,761 C 289.68792,761.13766 294.80655,761.1875 299.96875,761.1875 C 307.27592,761.18748 314.57403,761.05171 321.8125,760.78125 C 425.37971,753.83077 514.53024,694.14339 562.875,608.21875 C 558.59491,596.91072 551.73763,585.82563 541.6875,575.21875 C 478.548,508.57701 401.25,570.21875 401.25,570.21875 C 386.61566,545.92597 357.09107,513.96537 300.65625,512.78125 C 298.89266,512.74425 297.14765,512.71679 295.4375,512.75 z "
         style="fill:#5ab532;fill-opacity:1;stroke:black;stroke-width:3;stroke-miterlimit:4;stroke-dasharray:none;stroke-opacity:1" />
      <path
         id="path2005"
         d="M 302.12078,761.18682 C 297.22941,760.78669 417.57875,704.55769 402.1587,567.45937"
         i:knockout="Off"
         style="fill:none;stroke:black;stroke-width:3;stroke-linecap:round;stroke-linejoin:round;stroke-miterlimit:4;stroke-dasharray:none"
         sodipodi:nodetypes="cc" />
      <path
         id="path2003"
         d="M 296.8843,761.18682 C 297.1953,762.89953 183.83721,686.67498 197.78063,571.85118"
         i:knockout="Off"
         style="fill:none;stroke:black;stroke-width:3;stroke-linecap:round;stroke-linejoin:round;stroke-miterlimit:4;stroke-dasharray:none"
         sodipodi:nodetypes="cs" />
    </g>
  </g>
  <g
     inkscape:groupmode="layer"
     id="layer3"
     inkscape:label="Reflet final"
     style="display:inline"
     sodipodi:insensitive="true">
    <path
       style="fill:url(#radialGradient3236);fill-opacity:1"
       d="M 1.5,1.5 L 1.5,460.3679 C 1.5,626.67854 135.81454,761.5 301.49993,761.5 C 467.1854,761.5 601.5,626.67854 601.5,460.3679 L 601.5,1.5 L 1.5,1.5 z "
       id="path2346" />
  </g>
  <g
     inkscape:groupmode="layer"
     id="layer4"
     inkscape:label="Contour final"
     style="display:inline"
     sodipodi:insensitive="true">
    <path
       style="fill:none;fill-opacity:1;stroke:#000000;stroke-width:3;stroke-miterlimit:4;stroke-dasharray:none;stroke-opacity:1"
       d="M 1.5,1.5 L 1.5,460.36794 C 1.5,626.67854 135.81454,761.5 301.49993,761.5 C 467.1854,761.5 601.5,626.67854 601.5,460.36794 L 601.5,1.5 L 1.5,1.5 z "
       id="path3239" />
  </g>
</svg>

<?xml version="1.0" encoding="UTF-8"?>
<svg version="1.0" viewBox="0 0 603 763" xmlns="http://www.w3.org/2000/svg" xmlns:cc="http://web.resource.org/cc/" xmlns:dc="http://purl.org/dc/elements/1.1/" xmlns:rdf="http://www.w3.org/1999/02/22-rdf-syntax-ns#" xmlns:xlink="http://www.w3.org/1999/xlink">
<metadata>
<rdf:RDF>
<cc:Work rdf:about="">
<dc:format>image/svg+xml</dc:format>
<dc:type rdf:resource="http://purl.org/dc/dcmitype/StillImage"/>
<dc:date>07-AUG-2006</dc:date>
<dc:creator>
<cc:Agent>
<dc:title>Jérôme BLUM (wagner51)</dc:title>
</cc:Agent>
</dc:creator>
<cc:license rdf:resource="http://creativecommons.org/licenses/GPL/2.0/"/>
<dc:coverage/>
<dc:description>Gabarit pour le Projet:Blasons de WIkipédia</dc:description>
<dc:subject>
<rdf:Bag>
<rdf:li>blason suisse modèle gabarit projet blasons</rdf:li>
</rdf:Bag>
</dc:subject>
<dc:language>fr</dc:language>
<dc:title>Gabrit d'un blason suisse</dc:title>
</cc:Work>
<cc:License rdf:about="http://creativecommons.org/licenses/GPL/2.0/">
<cc:permits rdf:resource="http://web.resource.org/cc/Reproduction"/>
<cc:permits rdf:resource="http://web.resource.org/cc/Distribution"/>
<cc:requires rdf:resource="http://web.resource.org/cc/Notice"/>
<cc:permits rdf:resource="http://web.resource.org/cc/DerivativeWorks"/>
<cc:requires rdf:resource="http://web.resource.org/cc/ShareAlike"/>
<cc:requires rdf:resource="http://web.resource.org/cc/SourceCode"/>
</cc:License>
</rdf:RDF>
</metadata>
<defs>
<radialGradient id="a" cx="858.04" cy="579.93" r="300" gradientTransform="matrix(1.215 1.5316e-24 1.4647e-23 1.2667 -839.19 -490.49)" gradientUnits="userSpaceOnUse">
<stop stop-color="#fff" stop-opacity=".31373" offset="0"/>
<stop stop-color="#fff" stop-opacity=".25098" offset=".19"/>
<stop stop-color="#6b6b6b" stop-opacity=".12549" offset=".6"/>
<stop stop-opacity=".12549" offset="1"/>
</radialGradient>
</defs>
<desc>Coat of Arms of Canton of Freiburg (Fribourg)</desc>
<path d="m1.5 1.5v458.87c0 166.31 134.31 301.13 300 301.13 165.69 0 300-134.82 300-301.13v-458.87h-600z" fill="#2b5df2"/>
<g stroke="#000">
<g transform="matrix(3.7967 0 0 3.7967 -2421.7 -1336.1)">
<rect x="704.97" y="390.06" width="7.0252" height="5.9367" fill-rule="evenodd" stroke-linecap="round" stroke-linejoin="round"/>
<rect x="653.5" y="453" width="127" height="32.503" fill="#fff" fill-rule="evenodd" stroke-linecap="round" stroke-linejoin="round" stroke-width=".99713"/>
<path d="m667 453v33" fill="#fff" fill-rule="evenodd" stroke-width="1px"/>
<path d="m661 461v16" fill="#fff" fill-rule="evenodd" stroke-width="1px"/>
<path d="m673 461v16" fill="#fff" fill-rule="evenodd" stroke-width="1px"/>
<path d="m667.14 453.93 4.4362-32.755-13.724 23.24-8.9666 9.5156h135.96l-8.4176-32.755h-104.85" fill="#e20909" fill-rule="evenodd" stroke-width="1px"/>
<rect x="678.52" y="401.52" width="32.879" height="83.787" fill="#fff" fill-rule="evenodd" stroke-linecap="round" stroke-linejoin="round" stroke-width="1.0322"/>
<g fill-opacity="0" stroke-width="1px">
<path d="m671.58 408.91v12.26"/>
<path d="m668.9 413.55 5.366-0.73197"/>
</g>
<path d="m695 440.8v7.1959" fill="#fff" fill-rule="evenodd" stroke-width="1px"/>
<path d="m755.58 478.52h7.9944v-12.736c-0.30785-4.0284-2.1377-5.964-3.7708-8.1702-2.4381 2.4641-4.2524 5.0619-4.2883 8.0408l0.0647 12.865z" fill="#fff" fill-rule="evenodd" stroke-width="1px"/>
<path d="m719.58 478.52h7.9944v-12.736c-0.30785-4.0284-2.1377-5.964-3.7708-8.1702-2.4381 2.4641-4.2524 5.0619-4.2883 8.0408l0.0647 12.865z" fill="#fff" fill-rule="evenodd" stroke-width="1px"/>
<path d="m691.56 423.5h7.9944v-10.859c-0.04906-3.3814-2.073-4.4872-3.706-6.6934-2.4381 2.4641-4.3171 3.5851-4.353 6.564l0.0647 10.989z" fill="#fff" fill-rule="evenodd" stroke-width="1px"/>
<path d="m691.56 485.5h6.9879v-10.859c-0.87253-1.826-1.341-2.3828-3.706-4.4974-2.4381 2.4641-2.6702 2.8531-3.3466 4.3681l0.0647 10.989z" fill="#fff" fill-rule="evenodd" stroke-width="1px"/>
<path d="m739.11 471.69c-2.0727-0.15049-4.1365 2.2394-4.0145 4.3067l-0.09375 9.5h8.125v-9.5c0.07466-2.1685-1.88-4.1516-4.0168-4.3067z" fill="#fff" fill-rule="evenodd" stroke-linecap="round" stroke-linejoin="round"/>
<rect x="678.97" y="390.06" width="7.0252" height="5.9367" fill-rule="evenodd" stroke-linecap="round" stroke-linejoin="round"/>
<path d="m704.95 386.77 4.0915-11.274 3.4639 9.6276 3.8956 6.4639-11.445 0.09149-0.00646-4.9085z" fill="#e20909" fill-rule="evenodd" stroke-width="1px"/>
<path d="m686.46 387.19-4.0915-11.274-3.4639 9.6276-4.9936 6.3724h13l-0.45102-4.7255z" fill="#e20909" fill-rule="evenodd" stroke-width="1px"/>
<path d="m684.57 389.88-11.345 12.809h44.284l-10.065-12.901-6.0135-11.697-11.34 0.09149-5.5203 11.697z" fill="#e20909" fill-rule="evenodd" stroke-width="1px"/>
<rect x="690.49" y="372.99" width="10.835" height="5.28" fill-rule="evenodd" stroke-linecap="round" stroke-linejoin="round" stroke-width=".98037"/>
<path d="m685 374.52h22l-8-6.5176-3.366-13.366-3.634 13.366-7 6.5176z" fill="#e20909" fill-rule="evenodd" stroke-width="1px"/>
<rect x="692.46" y="390.96" width="6.794" height="5.5515" fill-rule="evenodd" stroke-linecap="round" stroke-linejoin="round" stroke-width=".91657"/>
<path d="m689 392 14.177 0.0915-4.549-6.098-2.6211-11.877-2.732 11.884-4.2745 6z" fill="#e20909" fill-rule="evenodd" stroke-width="1px"/>
<path d="m678.58 453h32.717" fill="#fff" fill-rule="evenodd" stroke-width="1px"/>
<path d="m678.71 428h32.588" fill="#fff" fill-rule="evenodd" stroke-width="1px"/>
</g>
<g transform="translate(-.088 .2849)" stroke-width="3">
<path d="m295.44 512.75c-53.015 1.0294-80.566 35.085-96.719 57.469-1e-5 0-77.263-61.642-140.41 5-9.1082 9.6128-15.611 19.631-19.938 29.844 48.416 88.522 139.84 149.96 246.06 155.94 0.04153 0.00234 0.08347-0.00232 0.125 0 5.1254 0.13766 10.244 0.1875 15.406 0.1875 7.3072-2e-5 14.605-0.13579 21.844-0.40625 103.57-6.9505 192.72-66.638 241.06-152.56-4.2801-11.308-11.137-22.393-21.188-33-63.14-66.642-140.44-5-140.44-5-14.634-24.293-44.159-56.253-100.59-57.438-1.7636-0.037-3.5086-0.06446-5.2188-0.03125z" fill="#5ab532"/>
<path d="m302.12 761.19c-4.8914-0.40013 115.46-56.629 100.04-193.73" fill="none" stroke-linecap="round" stroke-linejoin="round"/>
<path d="m296.88 761.19c0.311 1.7127-113.05-74.512-99.104-189.34" fill="none" stroke-linecap="round" stroke-linejoin="round"/>
</g>
</g>
<g>
<path d="m1.5 1.5v458.87c0 166.31 134.31 301.13 300 301.13 165.69 0 300-134.82 300-301.13v-458.87h-600z" fill="url(#a)"/>
<path d="m1.5 1.5v458.87c0 166.31 134.31 301.13 300 301.13 165.69 0 300-134.82 300-301.13v-458.87h-600z" fill="none" stroke="#000" stroke-width="3"/>
</g>
</svg>
